images/The-Studio.svg

<svg height="176.106195" viewBox="0 0 400 176.10619469" width="400" xmlns="http://www.w3.org/2000/svg"><path d="m149.554 4.256c-2.571 2.668-5.858 7.789-8.804 13.717-2.586 5.203-4.839 9.461-5.008 9.461s-3.382-1.033-7.14-2.294c-14.893-5-28.772-3.595-33 3.34-3.545 5.814-1.756 9.845 3.182 7.17 1.399-.758 3.738-2.021 5.198-2.806 4.905-2.638 23.675-1.649 28.546 1.504.875.566.721 2.22-.723 7.743-1.009 3.863-2.066 10.921-2.349 15.685-.501 8.447-.581 8.708-3.259 10.577-3.379 2.357-4.039 3.274-3.454 4.797.589 1.534 2.914 1.47 5.039-.139 1.531-1.159 1.798-1.022 3.097 1.576 2.875 5.752 8.998 6.108 15.208.883l2.678-2.254-.545 2.174c-1.726 6.877 7.249 4.527 9.708-2.542 2.79-8.018 5.191-11.861 10.457-16.736 6.295-5.828 6.663-5.73 3.691.99-8.492 19.204-2.528 28.728 11.46 18.298l3.373-2.514 2.423 2.423c7.134 7.133 23.997 3.343 31.743-7.134 4.474-6.053 1.231-7.649-4.622-2.276-7.126 6.542-15.828 8.47-19.24 4.262-.841-1.038-.867-1.277-.087-.808 5.875 3.529 21.76-15.312 18.845-22.35-5.318-12.838-30.13 1.622-30.13 17.558 0 1.903-.872 3.237-3.446 5.276-6.789 5.377-6.948 3.516-.968-11.313 4.668-11.576 5.051-13.285 3.352-14.984-2.406-2.406-10.959.4-16.554 5.431-1.49 1.34-1.062.321 1.429-3.396 12.407-18.519 19.012-45.575 11.126-45.575-4.443 0-15.277 16.789-20.542 31.833l-2.381 6.802-2.877-1.362c-1.863-.883-2.734-1.842-2.471-2.725 8.737-29.357 7.58-41.221-2.955-30.292m23.917 19.484c-1.263 5.015-7.351 18.426-7.78 17.138-.469-1.408 3.859-17.15 6.197-22.537l2.006-4.624.288 3.026c.159 1.664-.161 4.813-.711 6.997m-26.115 1.558c-1.489 6.697-1.764 7.105-3.875 5.767-1.351-.856-.661-3.756 2.865-12.038 2.524-5.928 3.028-2.797 1.01 6.271m79.193-1.847v3.983h11.947 11.946v43.536 43.536l-2.876-2.729c-12.765-12.114-33.658-6.514-40.561 10.873-4.918 12.384-2.654 34.931 4.45 44.324 8.928 11.807 29.007 12.012 37.873.387l2.884-3.782v5.379 5.378h38.053 38.054v-6.637-6.637h-5.31-5.31v-26.991-26.991h-17.257-17.256v6.637 6.637h4.867 4.867v20.354 20.354h-8.849-8.85v-70.797-70.796h-24.336-24.336zm-84.499 21.285c-3.913 10.397-4.559 10.666-3.072 1.282 1.36-8.58 1.551-9.008 3.543-7.942 1.651.884 1.639 1.056-.471 6.66m11.367-1.696 3.034 1.447-2.442 9.101c-2.491 9.287-3.862 11.798-8.638 15.816-5.95 5.007-9.715-1.564-5.222-9.111 1.342-2.254 4.027-7.384 5.967-11.399 1.94-4.016 3.693-7.301 3.897-7.301.203 0 1.735.651 3.404 1.447m53.663 7.446c0 3.628-1.772 6.773-6.208 11.018-2.035 1.947-4.033 4.337-4.442 5.31-.541 1.29-.753.57-.779-2.655-.061-7.326 5.254-16.371 9.619-16.371 1.427 0 1.81.57 1.81 2.698m92.844 22.926c-8.462 2.564-12.454 12.7-7.928 20.124 4.775 7.83 17.564 8.716 23.771 1.646 9.404-10.711-1.752-26.04-15.843-21.77m-212.092 17.533-10.841 1.319v7.408 7.408h-6.195-6.194v6.637 6.637h5.752 5.752v18.423c0 30.75 3.881 36.848 23.452 36.848 15.011 0 22.119-6.376 24.734-22.187l.602-3.641-3.989-1.005c-5.889-1.483-6.537-1.315-7.236 1.868-1.605 7.306-4.764 10.497-9.046 9.137-3.185-1.011-3.738-4.297-3.738-22.228v-17.215h14.087 14.087l.296 20.133c.268 18.152.478 20.524 2.137 24.115 7.596 16.433 31.987 15.115 40.938-2.213l1.828-3.539.039 7.743.039 7.743h15.929 15.93v-6.637-6.637h-4.425-4.425v-26.991-26.991h-17.257-17.256v6.637 6.637h4.955 4.955l-.327 15.265c-.337 15.746-.695 17.462-4.526 21.668-2.178 2.393-6.843 3.417-9.38 2.06-4.16-2.227-4.527-4.594-4.527-29.215v-23.052h-26.548-26.549v-8.85c0-6.555-.287-8.818-1.106-8.727-.609.068-5.985.717-11.947 1.442m-69.498 15.331c-13.184 3.104-21.096 17.913-15.799 29.572 3.209 7.064 9.552 10.735 25.425 14.716 9.852 2.471 13.19 4.682 13.19 8.737 0 8.46-13.55 6.145-24.054-4.11l-4.864-4.749h-6.116-6.116v12.832 12.832h6.549 6.549l1.055-4.4 1.056-4.4 3.236 2.59c17.411 13.936 45.325 3.921 45.252-16.236-.045-12.62-6.054-18.08-25.644-23.301-11.755-3.133-15.044-4.927-15.044-8.203 0-8.1 11.751-6.69 21.559 2.586l4.718 4.462h6.33 6.331v-11.947-11.947h-6.602-6.601l-1.061 3.54c-1.255 4.189-.808 4.068-4.853 1.323-6.38-4.33-16.095-5.875-24.496-3.897m334.763.005c-32.558 6.359-38.9 52.402-9.098 66.046 18.851 8.63 42.613 1.877 51.399-14.606 15.179-28.48-9.043-57.935-42.301-51.44m15.663 13.76c4.209 5.279 5.431 32.097 1.776 38.976-3.117 5.868-9.031 7.333-13.709 3.396-7.242-6.093-7.163-39.077.105-44.333 3.054-2.209 9.333-1.167 11.828 1.961m-121.928 2.602c7.699 6.478 7.025 31.412-.999 37.033-8.696 6.091-15.379-2.236-15.224-18.968.162-17.605 7.311-25.564 16.223-18.065" fill-rule="evenodd"/></svg>

<svg id="svg" xmlns="http://www.w3.org/2000/svg" xmlns:xlink="http://www.w3.org/1999/xlink" width="400" height="176.10619469026548" viewBox="0, 0, 400,176.10619469026548"><g id="svgg"><path id="path0" d="M149.554 4.256 C 146.983 6.924,143.696 12.045,140.750 17.973 C 138.164 23.176,135.911 27.434,135.742 27.434 C 135.573 27.434,132.360 26.401,128.602 25.140 C 113.709 20.140,99.830 21.545,95.602 28.480 C 92.057 34.294,93.846 38.325,98.784 35.650 C 100.183 34.892,102.522 33.629,103.982 32.844 C 108.887 30.206,127.657 31.195,132.528 34.348 C 133.403 34.914,133.249 36.568,131.805 42.091 C 130.796 45.954,129.739 53.012,129.456 57.776 C 128.955 66.223,128.875 66.484,126.197 68.353 C 122.818 70.710,122.158 71.627,122.743 73.150 C 123.332 74.684,125.657 74.620,127.782 73.011 C 129.313 71.852,129.580 71.989,130.879 74.587 C 133.754 80.339,139.877 80.695,146.087 75.470 L 148.765 73.216 148.220 75.390 C 146.494 82.267,155.469 79.917,157.928 72.848 C 160.718 64.830,163.119 60.987,168.385 56.112 C 174.680 50.284,175.048 50.382,172.076 57.102 C 163.584 76.306,169.548 85.830,183.536 75.400 L 186.909 72.886 189.332 75.309 C 196.466 82.442,213.329 78.652,221.075 68.175 C 225.549 62.122,222.306 60.526,216.453 65.899 C 209.327 72.441,200.625 74.369,197.213 70.161 C 196.372 69.123,196.346 68.884,197.126 69.353 C 203.001 72.882,218.886 54.041,215.971 47.003 C 210.653 34.165,185.841 48.625,185.841 64.561 C 185.841 66.464,184.969 67.798,182.395 69.837 C 175.606 75.214,175.447 73.353,181.427 58.524 C 186.095 46.948,186.478 45.239,184.779 43.540 C 182.373 41.134,173.820 43.940,168.225 48.971 C 166.735 50.311,167.163 49.292,169.654 45.575 C 182.061 27.056,188.666 -0.000,180.780 -0.000 C 176.337 0.000,165.503 16.789,160.238 31.833 L 157.857 38.635 154.980 37.273 C 153.117 36.390,152.246 35.431,152.509 34.548 C 161.246 5.191,160.089 -6.673,149.554 4.256 M173.471 23.740 C 172.208 28.755,166.120 42.166,165.691 40.878 C 165.222 39.470,169.550 23.728,171.888 18.341 L 173.894 13.717 174.182 16.743 C 174.341 18.407,174.021 21.556,173.471 23.740 M147.356 25.298 C 145.867 31.995,145.592 32.403,143.481 31.065 C 142.130 30.209,142.820 27.309,146.346 19.027 C 148.870 13.099,149.374 16.230,147.356 25.298 M226.549 23.451 L 226.549 27.434 238.496 27.434 L 250.442 27.434 250.442 70.970 L 250.442 114.506 247.566 111.777 C 234.801 99.663,213.908 105.263,207.005 122.650 C 202.087 135.034,204.351 157.581,211.455 166.974 C 220.383 178.781,240.462 178.986,249.328 167.361 L 252.212 163.579 252.212 168.958 L 252.212 174.336 290.265 174.336 L 328.319 174.336 328.319 167.699 L 328.319 161.062 323.009 161.062 L 317.699 161.062 317.699 134.071 L 317.699 107.080 300.442 107.080 L 283.186 107.080 283.186 113.717 L 283.186 120.354 288.053 120.354 L 292.920 120.354 292.920 140.708 L 292.920 161.062 284.071 161.062 L 275.221 161.062 275.221 90.265 L 275.221 19.469 250.885 19.469 L 226.549 19.469 226.549 23.451 M142.050 44.736 C 138.137 55.133,137.491 55.402,138.978 46.018 C 140.338 37.438,140.529 37.010,142.521 38.076 C 144.172 38.960,144.160 39.132,142.050 44.736 M153.417 43.040 L 156.451 44.487 154.009 53.588 C 151.518 62.875,150.147 65.386,145.371 69.404 C 139.421 74.411,135.656 67.840,140.149 60.293 C 141.491 58.039,144.176 52.909,146.116 48.894 C 148.056 44.878,149.809 41.593,150.013 41.593 C 150.216 41.593,151.748 42.244,153.417 43.040 M207.080 50.486 C 207.080 54.114,205.308 57.259,200.872 61.504 C 198.837 63.451,196.839 65.841,196.430 66.814 C 195.889 68.104,195.677 67.384,195.651 64.159 C 195.590 56.833,200.905 47.788,205.270 47.788 C 206.697 47.788,207.080 48.358,207.080 50.486 M299.924 73.412 C 291.462 75.976,287.470 86.112,291.996 93.536 C 296.771 101.366,309.560 102.252,315.767 95.182 C 325.171 84.471,314.015 69.142,299.924 73.412 M87.832 90.945 L 76.991 92.264 76.991 99.672 L 76.991 107.080 70.796 107.080 L 64.602 107.080 64.602 113.717 L 64.602 120.354 70.354 120.354 L 76.106 120.354 76.106 138.777 C 76.106 169.527,79.987 175.625,99.558 175.625 C 114.569 175.625,121.677 169.249,124.292 153.438 L 124.894 149.797 120.905 148.792 C 115.016 147.309,114.368 147.477,113.669 150.660 C 112.064 157.966,108.905 161.157,104.623 159.797 C 101.438 158.786,100.885 155.500,100.885 137.569 L 100.885 120.354 114.972 120.354 L 129.059 120.354 129.355 140.487 C 129.623 158.639,129.833 161.011,131.492 164.602 C 139.088 181.035,163.479 179.717,172.430 162.389 L 174.258 158.850 174.297 166.593 L 174.336 174.336 190.265 174.336 L 206.195 174.336 206.195 167.699 L 206.195 161.062 201.770 161.062 L 197.345 161.062 197.345 134.071 L 197.345 107.080 180.088 107.080 L 162.832 107.080 162.832 113.717 L 162.832 120.354 167.787 120.354 L 172.742 120.354 172.415 135.619 C 172.078 151.365,171.720 153.081,167.889 157.287 C 165.711 159.680,161.046 160.704,158.509 159.347 C 154.349 157.120,153.982 154.753,153.982 130.132 L 153.982 107.080 127.434 107.080 L 100.885 107.080 100.885 98.230 C 100.885 91.675,100.598 89.412,99.779 89.503 C 99.170 89.571,93.794 90.220,87.832 90.945 M18.334 106.276 C 5.150 109.380,-2.762 124.189,2.535 135.848 C 5.744 142.912,12.087 146.583,27.960 150.564 C 37.812 153.035,41.150 155.246,41.150 159.301 C 41.150 167.761,27.600 165.446,17.096 155.191 L 12.232 150.442 6.116 150.442 L 0.000 150.442 0.000 163.274 L 0.000 176.106 6.549 176.106 L 13.098 176.106 14.153 171.706 L 15.209 167.306 18.445 169.896 C 35.856 183.832,63.770 173.817,63.697 153.660 C 63.652 141.040,57.643 135.580,38.053 130.359 C 26.298 127.226,23.009 125.432,23.009 122.156 C 23.009 114.056,34.760 115.466,44.568 124.742 L 49.286 129.204 55.616 129.204 L 61.947 129.204 61.947 117.257 L 61.947 105.310 55.345 105.310 L 48.744 105.310 47.683 108.850 C 46.428 113.039,46.875 112.918,42.830 110.173 C 36.450 105.843,26.735 104.298,18.334 106.276 M353.097 106.281 C 320.539 112.640,314.197 158.683,343.999 172.327 C 362.850 180.957,386.612 174.204,395.398 157.721 C 410.577 129.241,386.355 99.786,353.097 106.281 M368.760 120.041 C 372.969 125.320,374.191 152.138,370.536 159.017 C 367.419 164.885,361.505 166.350,356.827 162.413 C 349.585 156.320,349.664 123.336,356.932 118.080 C 359.986 115.871,366.265 116.913,368.760 120.041 M246.832 122.643 C 254.531 129.121,253.857 154.055,245.833 159.676 C 237.137 165.767,230.454 157.440,230.609 140.708 C 230.771 123.103,237.920 115.144,246.832 122.643 " stroke="none" fill="#000000" fill-rule="evenodd"></path></g></svg>
